!!!!SEGMENT: pl-stab--4a--001-001_dankowski-adalbert--vesper-beate-marie-vir-domine-ad-adjuvandum.krn
!!!cenid: 18xx:3490
!!!COM: Dankowski, Adalbert
!!!COM-rismID: pe30000793
!!!CDT: ~1760-~1836
!!!CNT: Polish
!!!OPR: Vesper Beate Marie Vir
!!!OTL: Domine ad adjuvandum
!!!OMV: 001
!!!PDT:
!!!AGN: Sacred; Vespers
!!!SMS-siglum: PL-STAb
!!!SMS-shelfmark: 4a
!!!SMS-shelfwork: 001-001 M
!!!SMS-variant:
!!!SMS-altvar:
!!!NIFC-rismSourceID: 301050556
!!!NIFC-rismChildID: 301050556
!!!NIFC-islandoraID: pl-stab:1091
!!!URL-pdf-islandora: https://repozytorium.nifc.pl/islandora/object/pl-stab%3A1091/datastream/PDF/view
!!!URL-scan: https://polish.musicsources.pl/pl/lokalizacje/galeria/rekopisy/4518 @EN{Scan on Polish Music Sources Website} @PL{Skany w portalu Dziedzictwo Muzyki Polskiej w otwartym dostępie}
!!!IIIF:
!!!ONB-nifc: UWAGA: części Nieszporów: 1. Domine ad adjuvandum, 2. Dixit Dominus, 3. Laudate pueri, 4. Laetatus sum, 5. Nisi Dominus, 6. Lauda Jerusalem, 7. Magnificat, 8. Et misericordia, 9. Gloria. UWAGA: Na f. 1v okładki zapisany głos org niezidentyfikowanych nieszporów
!!!AIN: 1 alto 1 bass 2 cor 1 organ 1 soprn 1 tenor 2 violn
!!!key: D
**kern	**fba	**dynam	**kern	**dynam	**kern	**dynam	**kern	**text	**kern	**text	**kern	**text	**kern	**text	**kern	**dynam	**kern	**dynam
*	*	*	*group3	*	*group3	*	*group2	*	*group2	*	*group2	*	*group2	*	*group1	*	*group1	*
*part9	*	*part9	*part8	*part8	*part7	*part7	*part6	*part6	*part5	*part5	*part4	*part4	*part3	*part3	*part2	*	*part1	*
*staff9	*	*	*staff8	*	*staff7	*	*staff6	*staff6	*staff5	*staff5	*staff4	*staff4	*staff3	*staff3	*staff2	*	*staff1	*
*I"Organo	*	*	*I"Violino Secundo	*	*I"Violino Primo	*	*I"Baſso	*	*I"Tenor	*	*I"Alto	*	*I"Canto	*	*I"Cornu Secundo Ex D.	*	*I"Cornu Primo Ex D:	*
*	*	*	*mI"Violino II	*	*mI"Violino I	*	*mI"Basso	*	*mI"Tenore	*	*mI"Alto	*	*mI"Soprano	*	*mI"Cornu II in D	*	*mI"Cornu I in D	*
*I'org	*	*	*I'vl 2	*	*I'vl 1	*	*I'B	*	*I'T	*	*I'A	*	*I'S	*	*I'cor 2 in D	*	*I'cor 1 in D	*
*Iorgan	*	*	*Ivioln	*	*Ivioln	*	*Ibass	*	*Itenor	*	*Ialto	*	*Isoprn	*	*Icor	*	*Icor	*
*ICklav	*	*	*ICstr	*	*ICstr	*	*ICvox	*	*ICvox	*	*ICvox	*	*ICvox	*	*ICbras	*	*ICbras	*
*IGcont	*	*	*IGacmp	*	*IGacmp	*	*IGcoro	*	*IGcoro	*	*IGcoro	*	*IGcoro	*	*IGacmp	*	*IGacmp	*
*clefF4	*	*	*clefG2	*	*clefG2	*	*clefF4	*	*clefC4	*	*clefC3	*	*clefC1	*	*clefG2	*	*clefG2	*
*	*	*	*	*	*	*	*	*	*mclefGv2	*	*mclefG2	*	*mclefG2	*	*	*	*	*
*	*	*	*	*	*	*	*	*	*	*	*	*	*	*	*ITrd6c10	*	*ITrd6c10	*
*k[f#c#]	*	*	*k[f#c#]	*	*k[f#c#]	*	*k[f#c#]	*	*k[c#f#]	*	*k[f#c#]	*	*k[f#c#]	*	*k[f#c#]	*	*k[f#c#]	*
*D:	*	*	*D:	*	*D:	*	*D:	*	*D:	*	*D:	*	*D:	*	*D:	*	*D:	*
*M3/4	*	*	*M3/4	*	*M3/4	*	*M3/4	*	*M3/4	*	*M3/4	*	*M3/4	*	*M3/4	*	*M3/4	*
=1	=1	=1	=1	=1	=1	=1	=1	=1	=1	=1	=1	=1	=1	=1	=1	=1	=1	=1
*	*	*	*	*	*	*	*2\right	*	*2\right	*	*2\right	*	*2\right	*	*	*	*	*
!LO:TX:a:i:t=Allo Tutti:mod=	!	!	!LO:TX:a:i:t=allo:mod=	!LO:DY:a:t=for:mod=	!LO:TX:a:i:t=allo:mod=	!LO:DY:a:t=for.:mod=	!LO:TX:a:i:t=allo:mod=	!	!LO:TX:a:i:t=allo:mod=	!	!	!	!LO:TX:a:i:t=Allo:mod=	!	!LO:TX:a:i:t=allo:mod=	!LO:DY:a:t=for.:mod=	!LO:TX:a:i:t=allo:mod=	!LO:DY:a:t=for.:mod=
!LO:TX:a:rj:t=N 4:mod=	!	!	!LO:TX:a:rj:t=N 4:mod=	!	!LO:TX:a:rj:t=N 4:mod=	!	!LO:TX:a:rj:t=N 4:mod=	!	!LO:TX:a:rj:t=N 4:mod=	!	!LO:TX:a:rj:t=N 4:mod=	!	!LO:TX:a:rj:t=N 4:mod=	!	!LO:TX:a:rj:t=N 4:mod=	!	!LO:TX:a:rj:t=N 4:mod=	!
!	!	!LO:MO:null:mod=!LO&colon;DY&colon;ed=brack	!	!	!	!	!	!	!	!	!	!	!	!	!	!	!	!
!	!	!	!	!	!	!	!	!	!	!	!	!	!	!	!	!	!	!
!	!	!LO:MO:null:mod=f	!	!	!	!	!	!	!	!	!	!	!LO:TX:t=P:problem=znaki f# cc#	!	!	!	!	!
4D\	.	.	4dd 4f#/	f	4ff# 4a 4d\	f	2D\	Do-	2A\	Do-	2f#\	Do-	2dd\	Do-	8F#/L	f	8d\L	f
.	.	.	.	.	.	.	.	.	.	.	.	.	.	.	16F#/L	.	16d\L	.
.	.	.	.	.	.	.	.	.	.	.	.	.	.	.	16F#/JJ	.	16d\JJ	.
4D\	.	.	4dd 4f#/	.	4ff# 4a 4d\	.	.	.	.	.	.	.	.	.	8F#/L	.	8d\L	.
.	.	.	.	.	.	.	.	.	.	.	.	.	.	.	8F#/	.	8d\	.
4D\	.	.	4r	.	4r	.	4D\	-mi-	4A\	-mi-	4f#\	-mi-	4dd\	-mi-	8F#/	.	8d\	.
.	.	.	.	.	.	.	.	.	.	.	.	.	.	.	8F#/J	.	8d\J	.
=2	=2	=2	=2	=2	=2	=2	=2	=2	=2	=2	=2	=2	=2	=2	=2	=2	=2	=2
4D\	.	.	(16f#/LL	.	(16dd\LL	.	4D\	-ne	4A\	-ne	4f#\	-ne	4dd\	-ne	4F#/	.	4d\	.
.	.	.	16g/)	.	16ee\)	.	.	.	.	.	.	.	.	.	.	.	.	.
.	.	.	(16f#/	.	(16dd\	.	.	.	.	.	.	.	.	.	.	.	.	.
.	.	.	16e/JJ)	.	16cc#\JJ)	.	.	.	.	.	.	.	.	.	.	.	.	.
4r	.	.	8f#/L|	.	8dd\L|	.	4r	.	4r	.	4r	.	4r	.	4r	.	4r	.
.	.	.	8a/|	.	8ff#\|	.	.	.	.	.	.	.	.	.	.	.	.	.
4r	.	.	8f#/|	.	8dd\|	.	4r	.	4r	.	4r	.	4r	.	4r	.	4r	.
.	.	.	8a/J|	.	8ff#\J|	.	.	.	.	.	.	.	.	.	.	.	.	.
=3	=3	=3	=3	=3	=3	=3	=3	=3	=3	=3	=3	=3	=3	=3	=3	=3	=3	=3
*	*	*	*	*	*	*	*	*ij	*	*ij	*	*ij	*	*ij	*	*	*	*
4D\	.	.	4f#/	.	4dd\	.	2D\	Do-	2A\	Do-	2f#\	Do-	2dd\	Do-	8F#/L	.	8d\L	.
.	.	.	.	.	.	.	.	.	.	.	.	.	.	.	16F#/L	.	16d\L	.
.	.	.	.	.	.	.	.	.	.	.	.	.	.	.	16F#/JJ	.	16d\JJ	.
4D\	.	.	4f#/	.	4dd\	.	.	.	.	.	.	.	.	.	8F#/L	.	8d\L	.
.	.	.	.	.	.	.	.	.	.	.	.	.	.	.	8F#/	.	8d\	.
4D\	.	.	4r	.	4r	.	4D\	-mi-	4A\	-mi-	4f#\	-mi-	4dd\	-mi-	8F#/	.	8d\	.
.	.	.	.	.	.	.	.	.	.	.	.	.	.	.	8F#/J	.	8d\J	.
=4	=4	=4	=4	=4	=4	=4	=4	=4	=4	=4	=4	=4	=4	=4	=4	=4	=4	=4
4D\	.	.	(16dd\LL	.	(16ff#\LL	.	4D\	-ne	4A\	-ne	4f#\	-ne	4dd\	-ne	4F#/	.	4d\	.
*	*	*	*	*	*	*	*	*Xij	*	*Xij	*	*Xij	*	*Xij	*	*	*	*
.	.	.	16ee\)	.	16gg\)	.	.	.	.	.	.	.	.	.	.	.	.	.
.	.	.	(16dd\	.	(16ff#\	.	.	.	.	.	.	.	.	.	.	.	.	.
.	.	.	16cc#\JJ)	.	16ee\JJ)	.	.	.	.	.	.	.	.	.	.	.	.	.
4r	.	.	8dd\L|	.	8ff#\L|	.	4r	.	4r	.	4r	.	4r	.	4r	.	4r	.
.	.	.	8ff#\|	.	8aa\|	.	.	.	.	.	.	.	.	.	.	.	.	.
4r	.	.	8dd\|	.	8ff#\|	.	4r	.	4r	.	4r	.	4r	.	4r	.	4r	.
.	.	.	8ff#\J|	.	8aa\J|	.	.	.	.	.	.	.	.	.	.	.	.	.
=5	=5	=5	=5	=5	=5	=5	=5	=5	=5	=5	=5	=5	=5	=5	=5	=5	=5	=5
8D\L	.	.	16f#/LL	.	4ff# 4a 4d\	.	4d\	ad	4d\	ad	4a\	ad	4ff#\	ad	4F#/	.	4d\	.
.	.	.	16a/	.	.	.	.	.	.	.	.	.	.	.	.	.	.	.
8D\	.	.	16f#/	.	.	.	.	.	.	.	.	.	.	.	.	.	.	.
.	.	.	16a/JJ	.	.	.	.	.	.	.	.	.	.	.	.	.	.	.
8D\	.	.	16f#/LL	.	16ff#\LL	.	4d\	ad-	4d\	ad-	4a\	ad-	4ff#\	ad-	4F#/	.	4d\	.
.	.	.	16a/	.	16ee\	.	.	.	.	.	.	.	.	.	.	.	.	.
8D\	.	.	16f#/	.	16ff#\	.	.	.	.	.	.	.	.	.	.	.	.	.
.	.	.	16a/JJ	.	16gg\JJ	.	.	.	.	.	.	.	.	.	.	.	.	.
8D\	.	.	16f#/LL	.	8aa\L|	.	4d\	-iu-	4d\	-iu-	4a\	-iu-	4ff#\	-iu-	4F#/	.	4d\	.
.	.	.	16a/	.	.	.	.	.	.	.	.	.	.	.	.	.	.	.
8D\J	.	.	16f#/	.	8aa\J|	.	.	.	.	.	.	.	.	.	.	.	.	.
.	.	.	16a/JJ	.	.	.	.	.	.	.	.	.	.	.	.	.	.	.
=6	=6	=6	=6	=6	=6	=6	=6	=6	=6	=6	=6	=6	=6	=6	=6	=6	=6	=6
*	*	*	*	*	*	*	*	*	*	*	*	*	*	*	*	*	*2\right	*
8C#\L	6_ 5_	.	16e/LL	.	4.aa\	.	2c#\	-van-	2e\	-van-	2a\	-van-	2gg\	-van-	2A/	.	2e\	.
.	.	.	16a/	.	.	.	.	.	.	.	.	.	.	.	.	.	.	.
8C#\	.	.	16e/	.	.	.	.	.	.	.	.	.	.	.	.	.	.	.
.	.	.	16a/JJ	.	.	.	.	.	.	.	.	.	.	.	.	.	.	.
8C#\	.	.	16e/LL	.	.	.	.	.	.	.	.	.	.	.	.	.	.	.
.	.	.	16a/	.	.	.	.	.	.	.	.	.	.	.	.	.	.	.
8C#\	.	.	16e/	.	8gg\	.	.	.	.	.	.	.	.	.	.	.	.	.
.	X X	.	16a/JJ	.	.	.	.	.	.	.	.	.	.	.	.	.	.	.
8D\	.	.	16e/LL	.	8ff#\L	.	4d\	-dum	4d\	-dum	4a\	-dum	4ff#\	-dum	4d\	.	4f#\	.
.	.	.	16a/	.	.	.	.	.	.	.	.	.	.	.	.	.	.	.
8D\J	.	.	16e/	.	16ee\L	.	.	.	.	.	.	.	.	.	.	.	.	.
.	.	.	16a/JJ	.	16ff#\JJ	.	.	.	.	.	.	.	.	.	.	.	.	.
!	!	!	!LO:LB:g=original	!	!LO:LB:g=original	!	!	!	!	!	!	!	!	!	!	!	!	!
=7	=7	=7	=7	=7	=7	=7	=7	=7	=7	=7	=7	=7	=7	=7	=7	=7	=7	=7
!LO:TX:t=P:problem=mixed beam	!	!	!	!	!	!	!	!	!	!	!	!	!	!	!	!	!	!
8G\L	6	.	8b/L	.	8gg\L	.	8G\	me	8B\	me	8g\	me	8ee\	me	4e\	.	4g\	.
8G\	.	.	16a/L	.	16ff#\L	.	8G\	fe-	8B\	fe-	8g\	fe-	8ee\	fe-	.	.	.	.
.	.	.	16g/JJ	.	16ee\JJ	.	.	.	.	.	.	.	.	.	.	.	.	.
8A\	4	.	4f#/	.	4dd\	.	4A\	-sti-	2B\	-sti-	4f#\	-sti-	4dd\	-sti-	4d\	.	4f#\	.
8A\	.	.	.	.	.	.	.	.	.	.	.	.	.	.	.	.	.	.
8AA/	3	.	4e/|	.	4r	.	4AA/	.	.	.	4e\	.	4cc#\	.	4A/	.	4e\	.
8AA/J	.	.	.	.	.	.	.	.	.	.	.	.	.	.	.	.	.	.
=8	=8	=8	=8	=8	=8	=8	=8	=8	=8	=8	=8	=8	=8	=8	=8	=8	=8	=8
!	!	!	!LO:TX:t=P:problem=mixed beam	!	!	!	!	!	!	!	!	!	!	!	!	!	!	!
4D\	.	.	8f#/L|<	.	8dd\L	.	4D\	-na	4A\	-na	4f#\	-na	4dd\	-na	4F#/	.	4d\	.
.	.	.	(16dd\L	.	(16ff#\L	.	.	.	.	.	.	.	.	.	.	.	.	.
.	.	.	16ee\JJ)	.	16gg\JJ)	.	.	.	.	.	.	.	.	.	.	.	.	.
4r	.	.	8ff#\L|	.	8aa\L|	.	4r	.	4r	.	4r	.	4r	.	4r	.	4r	.
.	.	.	8dd\J|	.	8ff#\|	.	.	.	.	.	.	.	.	.	.	.	.	.
4r	.	.	8a/L|	.	8dd\|	.	4r	.	4r	.	4r	.	4r	.	4r	.	4r	.
.	.	.	8f#/J|	.	8a\J|	.	.	.	.	.	.	.	.	.	.	.	.	.
!LO:LB:g=original	!	!	!	!	!	!	!	!	!LO:LB:g=original	!	!LO:LB:g=original	!	!LO:LB:g=original	!	!	!	!	!
=9	=9	=9	=9	=9	=9	=9	=9	=9	=9	=9	=9	=9	=9	=9	=9	=9	=9	=9
!	!	!LO:DY:a:rj:t=p.:mod=	!	!	!	!	!	!	!	!	!LO:TX:a:i:t=Solo	!	!LO:TX:a:i:t=Solo	!	!	!	!	!
4D\	.	p	4d/	.	4f#/	.	0.r	.	0.r	.	4.f#\	Glo-	4.dd\	Glo-	0.r	.	0.r	.
4d\	.	.	4r	.	4r	.	.	.	.	.	.	.	.	.	.	.	.	.
.	.	.	.	.	.	.	.	.	.	.	16g\LL	.	16ee\LL	.	.	.	.	.
.	.	.	.	.	.	.	.	.	.	.	16a\JJ	.	16ff#\JJ	.	.	.	.	.
4D\	.	.	4r	.	4r	.	.	.	.	.	8g\	-ri-	8ee\	-ri-	.	.	.	.
.	.	.	.	.	.	.	.	.	.	.	8f#\	-a	8dd\	-a	.	.	.	.
=10	=10	=10	=10	=10	=10	=10	=10	=10	=10	=10	=10	=10	=10	=10	=10	=10	=10	=10
!	!	!	!	!	!	!LO:DY:a:rj:t=p.:mod=	!	!	!	!	!	!	!	!	!	!	!	!
!	!	!LO:MO:null:mod=!LO&colon;DY&colon;ed=brack	!	!	!	!	!	!	!	!	!	!	!	!	!	!	!	!
!	!	!	!	!	!	!	!	!	!	!	!	!	!	!	!	!	!	!
!	!	!LO:MO:null:mod=p	!	!	!	!LO:MO:mod=!null:null	!	!	!	!	!	!	!	!	!	!	!	!
4A\	.	.	8r	.	8r	p	.	.	.	.	8f#\L	pa-	8dd\L	pa-	.	.	.	.
!	!	!	!	!LO:DY:a:t=p.:mod=	!	!	!	!	!	!	!	!	!	!	!	!	!	!
!	!	!	!	!	!	!LO:MO:null:mod=p	!	!	!	!	!	!	!	!	!	!	!	!
.	.	.	16cc#\LL	p	16ee\LL	.	.	.	.	.	8e\J	.	8cc#\J	.	.	.	.	.
.	.	.	16dd\JJ	.	16ff#\JJ	.	.	.	.	.	.	.	.	.	.	.	.	.
4AA/	.	.	8ee\L|	.	8gg\L	.	.	.	.	.	4e\	-tri	4cc#\	-tri	.	.	.	.
.	.	.	8cc#\J|	.	8ee\	.	.	.	.	.	.	.	.	.	.	.	.	.
4r	.	.	8g/L|	.	8cc#\	.	.	.	.	.	4r	.	4r	.	.	.	.	.
.	.	.	8e/J|	.	8g\J	.	.	.	.	.	.	.	.	.	.	.	.	.
=11	=11	=11	=11	=11	=11	=11	=11	=11	=11	=11	=11	=11	=11	=11	=11	=11	=11	=11
4AA/	.	.	4c#/	.	4e/	.	.	.	.	.	(4.e\	Glo-	(4.cc#\	Glo-	.	.	.	.
4A\	.	.	4r	.	4r	.	.	.	.	.	.	.	.	.	.	.	.	.
.	.	.	.	.	.	.	.	.	.	.	16f#\LL	.	16dd\LL	.	.	.	.	.
.	.	.	.	.	.	.	.	.	.	.	16g\JJ)	.	16ee\JJ)	.	.	.	.	.
4AA/	.	.	4r	.	4r	.	.	.	.	.	8a\	-ri-	8ff#\	-ri-	.	.	.	.
.	.	.	.	.	.	.	.	.	.	.	8g\	-a	8ee\	-a	.	.	.	.
=12	=12	=12	=12	=12	=12	=12	=12	=12	=12	=12	=12	=12	=12	=12	=12	=12	=12	=12
4D\	.	.	8r	.	8r	.	.	.	.	.	8g\	fi-	8ee\	fi-	.	.	.	.
.	.	.	16dd\LL	.	16ff#\LL	.	.	.	.	.	8f#\	-li-	8dd\	-li-	.	.	.	.
.	.	.	16ee\JJ	.	16gg\JJ	.	.	.	.	.	.	.	.	.	.	.	.	.
4D\	.	.	8ff#\L	.	8aa\L	.	.	.	.	.	4f#\	-o	4dd\	-o	.	.	.	.
.	.	.	8dd\J	.	8ff#\	.	.	.	.	.	.	.	.	.	.	.	.	.
4r	.	.	8a/L	.	8dd\	.	.	.	.	.	4r	.	4r	.	.	.	.	.
.	.	.	8f#/J	.	8a\J	.	.	.	.	.	.	.	.	.	.	.	.	.
=13	=13	=13	=13	=13	=13	=13	=13	=13	=13	=13	=13	=13	=13	=13	=13	=13	=13	=13
4D\	.	.	4d/	.	4f#/	.	0.r	.	0.r	.	(4.f#\	et	(4.dd\	et	0.r	.	0.r	.
4d\	.	.	4r	.	4r	.	.	.	.	.	.	.	.	.	.	.	.	.
.	.	.	.	.	.	.	.	.	.	.	16g\LL	.	16ee\LL	.	.	.	.	.
.	.	.	.	.	.	.	.	.	.	.	16a\JJ)	.	16ff#\JJ)	.	.	.	.	.
4D\	.	.	4r	.	4r	.	.	.	.	.	8b\	Spi-	8gg\	Spi-	.	.	.	.
!	!	!	!	!	!	!	!	!	!	!	!	!LO:MO:mod=.	!	!	!	!	!	!
.	.	.	.	.	.	.	.	.	.	.	8a\	-ri-	8ff#\	.	.	.	.	.
=14	=14	=14	=14	=14	=14	=14	=14	=14	=14	=14	=14	=14	=14	=14	=14	=14	=14	=14
!	!	!	!	!	!	!	!	!	!	!	!	!LO:MO:null:mod=-ri-	!	!	!	!	!	!
4A\	6	.	8c#/L	.	8f#/L	.	.	.	.	.	4a\	.	(4ff#\	-ri-	.	.	.	.
.	.	.	8f#/	.	8a/	.	.	.	.	.	.	.	.	.	.	.	.	.
4A#X\	5	.	8c#/	.	8e/	.	.	.	.	.	16a\LL	.	16ff#\LL)	.	.	.	.	.
.	.	.	.	.	.	.	.	.	.	.	16g\JJ	.	16ee\JJ	.	.	.	.	.
.	.	.	8e/J	.	8g/J	.	.	.	.	.	16f#\LL	-tu-	16dd\LL	-tu-	.	.	.	.
.	.	.	.	.	.	.	.	.	.	.	16g\JJ	.	16ee\JJ	.	.	.	.	.
4B\	.	.	8d/L	.	8f#/L	.	.	.	.	.	4f#\	-i	4dd\	-i	.	.	.	.
.	.	.	16c#/L	.	16e/L	.	.	.	.	.	.	.	.	.	.	.	.	.
.	.	.	16d/JJ	.	16f#/JJ	.	.	.	.	.	.	.	.	.	.	.	.	.
!	!	!	!	!	!LO:LB:g=original	!	!	!	!	!	!LO:LB:g=original	!	!	!	!	!	!	!
=15	=15	=15	=15	=15	=15	=15	=15	=15	=15	=15	=15	=15	=15	=15	=15	=15	=15	=15
4G\	6	.	8e/L	.	8g/L	.	.	.	.	.	4g\	Sanc-	4ee\	Sanc-	.	.	.	.
.	.	.	8g/	.	8b/	.	.	.	.	.	.	.	.	.	.	.	.	.
4An\	4	.	8f#/	.	8a/	.	.	.	.	.	4f#\	.	4dd\	.	.	.	.	.
.	.	.	8d/	.	8f#/	.	.	.	.	.	.	.	.	.	.	.	.	.
4AA/	3	.	8e/	.	8g/	.	.	.	.	.	4e\	.	4cc#\	.	.	.	.	.
.	.	.	8c#/J	.	8e/J	.	.	.	.	.	.	.	.	.	.	.	.	.
=16	=16	=16	=16	=16	=16	=16	=16	=16	=16	=16	=16	=16	=16	=16	=16	=16	=16	=16
4D\	.	.	8d/L	.	8g/L	.	.	.	.	.	4f#\	-to	4dd\	-to	.	.	.	.
.	.	.	8f#/	.	8a/J	.	.	.	.	.	.	.	.	.	.	.	.	.
!	!	!	!	!LO:HP:b:t=cres	!	!LO:HP:b:t=cres.	!	!	!	!	!	!	!	!	!	!	!	!
4r	.	.	8g/|	<	8b\L|	<	.	.	.	.	4r	.	4r	.	.	.	.	.
.	.	.	8a|	.	8cc#\|	.	.	.	.	.	.	.	.	.	.	.	.	.
4r	.	.	8b/|	.	8dd\|	.	.	.	.	.	4r	.	4r	.	.	.	.	.
.	.	.	8cc#/J|	.	8ee\J|	.	.	.	.	.	.	.	.	.	.	.	.	.
!	!	!	!LO:LB:g=original	!	!	!	!	!	!	!	!	!	!LO:LB:g=original	!	!	!	!	!
=17	=17	=17	=17	=17	=17	=17	=17	=17	=17	=17	=17	=17	=17	=17	=17	=17	=17	=17
!LO:TX:a:rj:t=tutti	!	!	!	!LO:DY:t=for	!	!LO:DY:a:t=for.:mod=	!	!	!	!	!	!	!	!	!	!	!	!
!	!	!LO:MO:null:mod=!LO&colon;DY&colon;ed=brack	!	!	!	!	!	!	!	!	!	!	!	!	!	!LO:MO:null:mod=!LO&colon;DY&colon;ed=brack	!	!LO:MO:null:mod=!LO&colon;DY&colon;ed=brack
!	!	!	!	!	!	!	!	!	!	!	!	!	!	!	!	!	!	!
!	!	!LO:MO:null:mod=f	!	!	!	!	!	!	!	!	!	!	!	!	!	!LO:MO:null:mod=f	!	!LO:MO:null:mod=f
8D\L	.	.	16dd\LL	f	4ff# 4a 4d\	f	2d\	Si-	2d\	Si-	2a\	Si-	2ff#\	Si-	8D/L	.	8d\L	.
.	.	.	16dd\	.	.	.	.	.	.	.	.	.	.	.	.	.	.	.
8D\	.	.	16dd\	.	.	.	.	.	.	.	.	.	.	.	8D/J	.	8d\J	.
.	.	.	16dd\JJ	.	.	.	.	.	.	.	.	.	.	.	.	.	.	.
8D\	.	.	16dd\LL	.	16ff#\LL	.	.	.	.	.	.	.	.	.	4D/	.	4d\	.
.	.	.	16dd\	.	16ee\	.	.	.	.	.	.	.	.	.	.	.	.	.
8D\	.	.	16dd\	.	16ff#\	.	.	.	.	.	.	.	.	.	.	.	.	.
.	.	.	16dd\JJ	.	16gg\JJ	.	.	.	.	.	.	.	.	.	.	.	.	.
*	*	*	*tremolo	*	*	*	*	*	*	*	*	*	*	*	*	*	*	*
8D\	.	.	16dd\LL	.	16aa\LL	.	4d\	-cut	4d\	-cut	4a\	-cut	4ff#\	-cut	4r	.	4r	.
.	.	.	16dd\	.	16bb\	.	.	.	.	.	.	.	.	.	.	.	.	.
8D\J	.	.	16dd\	.	16ccc#\	.	.	.	.	.	.	.	.	.	.	.	.	.
.	.	.	16dd\JJ	.	16ddd\JJ	.	.	.	.	.	.	.	.	.	.	.	.	.
*	*	*	*Xtemolo	*	*	*	*	*	*	*	*	*	*	*	*	*	*	*
!	!	!	!	!	!	!	!LO:LB:g=original	!	!	!	!	!	!	!	!	!	!LO:LB:g=original	!
=18	=18	=18	=18	=18	=18	=18	=18	=18	=18	=18	=18	=18	=18	=18	=18	=18	=18	=18
*	*	*	*tremolo	*	*	*	*	*	*	*	*	*	*	*	*	*	*	*
8D\L	6_ 4_	.	16gg\LL	.	4.bb\	.	2d\	e-	2d\	e-	2b\	e-	2gg\	e-	8D/L	.	8d\L	.
.	.	.	16gg\	.	.	.	.	.	.	.	.	.	.	.	.	.	.	.
8D\	.	.	16gg\	.	.	.	.	.	.	.	.	.	.	.	8D/J	.	8d\J	.
.	.	.	16gg\JJ	.	.	.	.	.	.	.	.	.	.	.	.	.	.	.
8D\	.	.	16gg\LL	.	.	.	.	.	.	.	.	.	.	.	4D/	.	4d\	.
.	.	.	16gg\	.	.	.	.	.	.	.	.	.	.	.	.	.	.	.
8D\	.	.	16gg\	.	16aa\LL	.	.	.	.	.	.	.	.	.	.	.	.	.
.	.	.	16gg\JJ	.	16bb\JJ	.	.	.	.	.	.	.	.	.	.	.	.	.
8D\	5 3	.	16ff#\LL	.	8aa\L	.	4d\	-rat	4d\	-rat	4a\	-rat	4ff#\	-rat	4r	.	4r	.
.	.	.	16ff#\	.	.	.	.	.	.	.	.	.	.	.	.	.	.	.
8D\J	.	.	16ff#\	.	8ddd\J	.	.	.	.	.	.	.	.	.	.	.	.	.
.	.	.	16ff#\JJ	.	.	.	.	.	.	.	.	.	.	.	.	.	.	.
*	*	*	*Xtemolo	*	*	*	*	*	*	*	*	*	*	*	*	*	*	*
!	!	!	!	!	!	!	!	!	!	!	!	!	!	!	!LO:LB:g=original	!	!	!
=19	=19	=19	=19	=19	=19	=19	=19	=19	=19	=19	=19	=19	=19	=19	=19	=19	=19	=19
*	*	*	*tremolo	*	*	*	*	*	*	*	*	*	*	*	*	*	*	*
8D\L	7_ 4_ 2_	.	16ee\LL	.	4gg\	.	2d\	in	2c#\	in	2g\	in	2ee\	in	4r	.	4r	.
.	.	.	16ee\	.	.	.	.	.	.	.	.	.	.	.	.	.	.	.
8D\	.	.	16ee\	.	.	.	.	.	.	.	.	.	.	.	.	.	.	.
.	.	.	16ee\JJ	.	.	.	.	.	.	.	.	.	.	.	.	.	.	.
8D\	.	.	16ee\LL	.	16aa\LL	.	.	.	.	.	.	.	.	.	4e\	.	4g\	.
.	.	.	16ee\	.	16gg\	.	.	.	.	.	.	.	.	.	.	.	.	.
8D\	.	.	16ee\	.	16ff#\	.	.	.	.	.	.	.	.	.	.	.	.	.
.	.	.	16ee\JJ	.	16gg\JJ	.	.	.	.	.	.	.	.	.	.	.	.	.
8C#\	6 5	.	16ee\LL	.	8aa\L	.	4c#\	prin-	4A\	prin-	4g\	prin-	4ee\	prin-	4e\	.	4g\	.
.	.	.	16ee\	.	.	.	.	.	.	.	.	.	.	.	.	.	.	.
8C#\J	.	.	16ee\	.	8gg\J	.	.	.	.	.	.	.	.	.	.	.	.	.
.	.	.	16ee\JJ	.	.	.	.	.	.	.	.	.	.	.	.	.	.	.
*	*	*	*Xtemolo	*	*	*	*	*	*	*	*	*	*	*	*	*	*	*
!LO:LB:g=original	!	!	!	!	!	!	!	!	!	!	!	!	!	!	!	!	!	!
=20	=20	=20	=20	=20	=20	=20	=20	=20	=20	=20	=20	=20	=20	=20	=20	=20	=20	=20
!LO:TX:t=P:problem=mixed beam	!	!	!	!	!	!	!	!	!	!	!	!	!	!	!	!	!	!
8D\L	4	.	(8.ee\L	.	8.gg\L	.	8d\	-ci-	8A\	-ci-	8g\	-ci-	8ee\	-ci-	4e\	.	4g\	.
8D\	.	.	.	.	.	.	8d\	-pi-	8A\	-pi-	8g\	-pi-	8ee\	-pi-	.	.	.	.
.	.	.	32ff#\LL	.	32aa\LL	.	.	.	.	.	.	.	.	.	.	.	.	.
.	.	.	32ee\JJJ)	.	32gg\JJJ	.	.	.	.	.	.	.	.	.	.	.	.	.
8DD/	3	.	8dd\L|	.	8ff#\L	.	8F#\	-o	8A\	-o	8f#\	-o	8dd\	-o	8d\L	.	8f#\L	.
8D\	.	.	8ff#\|	.	8aa\	.	8F#\	et	8d\	et	8a\	et	8ff#\	et	8d\	.	8f#\	.
8G\	6	.	8ee\|	.	8gg\	.	8G\	nunc	8B\	nunc	8g\	nunc	8ee\	nunc	8e\	.	8g\	.
8G#X\J	5	.	8dd\J|	.	8ff#\J	.	8G#X\	et	8B\	et	8f#\	et	8dd\	et	8d\J	.	8f#\J	.
=21	=21	=21	=21	=21	=21	=21	=21	=21	=21	=21	=21	=21	=21	=21	=21	=21	=21	=21
4A\	4	.	(8.dd\L	.	8.ff#\L	.	4A\	Sem-	4A\	Sem-	4f#\	Sem-	4dd\	Sem-	4d\	.	4f#\	.
.	.	.	32ee\LL	.	32gg\LL	.	.	.	.	.	.	.	.	.	.	.	.	.
.	.	.	32dd\JJJ)	.	32ff#\JJJ	.	.	.	.	.	.	.	.	.	.	.	.	.
!LO:TX:t=P:problem=mixed beam	!	!	!	!	!	!	!	!	!	!	!	!	!	!	!	!	!	!
8AA/L	3	.	8cc#\L|	.	8ee\L	.	8AA/	-per	8A\	-per	8e\	-per	8cc#\	-per	4A/	.	4e\	.
8A\	6\ 3	.	8cc#\|	.	8aa\	.	8A\L	et	4e\	et	8a\L	et	8cc#\L	et	.	.	.	.
8B\	3	.	8dd\|	.	8gg#X\	.	8B\J	.	.	.	8g#X\J	.	8dd\J	.	8r	.	8r	.
.	5 3	.	.	.	.	.	.	.	.	.	.	.	.	.	.	.	.	.
8c#\J	4 3	.	8ee\J|	.	8ggn\J	.	8c#\	-in	8A\	-in	8gn\	-in	8ee\	-in	8A/	.	8e\	.
!	!	!	!	!	!LO:LB:g=original	!	!	!	!	!	!LO:LB:g=original	!	!	!	!	!	!	!
=22	=22	=22	=22	=22	=22	=22	=22	=22	=22	=22	=22	=22	=22	=22	=22	=22	=22	=22
4d\	4	.	(8.ee\L	.	8.gg\L	.	8.d\	Sae-	8A\	Sae-	8.g\	Sae-	8ee\	Sae-	4A/	.	4e\	.
.	.	.	.	.	.	.	.	.	8A\	-cu-	.	.	8ee\	-cu-	.	.	.	.
.	.	.	32ff#\LL	.	32aa\LL	.	16d\	-cu-	.	.	16g\	-cu-	.	.	.	.	.	.
.	.	.	32ee\JJJ)	.	32gg\JJJ	.	.	.	.	.	.	.	.	.	.	.	.	.
8D\L	3	.	8dd\L	.	8ff#\L	.	8D\	-la	8A\	-la	8f#\	-la	8dd\	-la	4F#/	.	4d\	.
8D\	3	.	8ff#\	.	8ddd\J	.	8D\L	Sae-	4A\	Sae-	8f#\L	Sae-	8dd\L	Sae-	.	.	.	.
8E\	-7r 3	.	8gg\	.	16ddd\LL	.	8E\J	.	.	.	8g\J	.	8cc#\J	.	8r	.	8r	.
.	.	.	.	.	16ccc#\	.	.	.	.	.	.	.	.	.	.	.	.	.
8F#\J	n5r 3	.	8aa\J	.	16aa\	.	8F#\	-cu-	8d\	-cu-	8a\	-cu-	8ccn\	-cu-	8d\	.	8a\	.
.	.	.	.	.	16cccn\JJ	.	.	.	.	.	.	.	.	.	.	.	.	.
=23	=23	=23	=23	=23	=23	=23	=23	=23	=23	=23	=23	=23	=23	=23	=23	=23	=23	=23
!LO:TX:t=P:problem=mixed beam	!	!	!	!	!	!	!	!	!	!	!	!	!	!	!	!	!	!
8G\L	3	.	8gg\L	.	8bb\L	.	8G\	-lo-	8B\	-lo-	8g\	-lo-	8b\	-lo-	4e\	.	4g\	.
8G\	6	.	16ff#\L	.	16aa\L	.	8G\	-rum	8B\	-rum	8g\	-rum	8ee\	-rum	.	.	.	.
.	.	.	16ee\JJ	.	16gg\JJ	.	.	.	.	.	.	.	.	.	.	.	.	.
!	!	!	!	!	!	!	!	!	!LO:LB:g=original	!	!	!	!	!	!	!	!	!
8A\	4	.	4dd\	.	4ff#\	.	4A\	a-	2A\	a-	4f#\	a-	(4dd\	a-	4d\	.	4f#\	.
8A\	.	.	.	.	.	.	.	.	.	.	.	.	.	.	.	.	.	.
8AA/	3	.	4cc#\	.	4ee\	.	4AA/	.	.	.	4e\	.	4cc#X\)	.	4A/	.	4e\	.
8AA/J	.	.	.	.	.	.	.	.	.	.	.	.	.	.	.	.	.	.
!	!	!	!	!	!	!	!	!	!	!	!	!	!LO:LB:g=original	!	!	!	!	!
=24	=24	=24	=24	=24	=24	=24	=24	=24	=24	=24	=24	=24	=24	=24	=24	=24	=24	=24
!	!	!	!LO:TX:t=P:problem=mixed beam	!	!	!	!	!	!	!	!	!	!	!	!	!	!	!
4D\	.	.	8dd\L	.	8ff#\L	.	4D\	-men	4A\	-men	4f#\	-men	4dd\	-men	4F#/	.	4d\	.
.	.	.	16f#/L	.	16dd\L	.	.	.	.	.	.	.	.	.	.	.	.	.
.	.	.	16a/JJ	.	16ff#\JJ	.	.	.	.	.	.	.	.	.	.	.	.	.
8r	.	.	16a/LL	.	16ff#\LL	.	8r	.	8r	.	8r	.	8r	.	8r	.	8r	.
.	.	.	16g/	.	16ee\	.	.	.	.	.	.	.	.	.	.	.	.	.
*	*	*	*	*	*	*	*	*	*	*	*	*ij	*	*ij	*	*	*	*
!LO:TX:t=P:problem=mixed beam	!	!	!	!	!	!	!	!	!	!	!	!	!	!	!	!	!	!
8G\L	6	.	16b/	.	16gg\	.	8G\	a-	8B\	a-	8g\	a-	8ee\	a-	8e\	.	8g\	.
.	.	.	16g/JJ	.	16ee\JJ	.	.	.	.	.	.	.	.	.	.	.	.	.
!	!	!	!	!	!	!	!LO:TX:t=P:problem=mixed beam	!	!	!	!	!	!	!	!	!	!	!
8A\	3_	.	8.e/L	.	8.cc#\L	.	8A\L	.	4A\	.	4e\	.	4cc#\	.	4A/	.	4e\	.
8AA/J	.	.	.	.	.	.	8AA/J	.	.	.	.	.	.	.	.	.	.	.
.	.	.	32d/LL	.	32b\LL	.	.	.	.	.	.	.	.	.	.	.	.	.
.	X	.	32e/JJJ	.	32cc#\JJJ	.	.	.	.	.	.	.	.	.	.	.	.	.
!	!	!	!LO:LB:g=original	!	!	!	!LO:LB:g=original	!	!	!	!	!	!	!	!	!	!	!
=25	=25	=25	=25	=25	=25	=25	=25	=25	=25	=25	=25	=25	=25	=25	=25	=25	=25	=25
4D\	.	.	8f#/L	.	8dd\L	.	4D\	-men	4A\	-men	4f#\	-men	4dd\	-men	4F#/	.	4d\	.
.	.	.	16f#/L	.	16dd\L	.	.	.	.	.	.	.	.	.	.	.	.	.
.	.	.	16a/JJ	.	16ff#\JJ	.	.	.	.	.	.	.	.	.	.	.	.	.
8r	.	.	16a/LL	.	16ff#\LL	.	8r	.	8r	.	8r	.	8r	.	8r	.	8r	.
.	.	.	16g/	.	16ee\	.	.	.	.	.	.	.	.	.	.	.	.	.
!LO:TX:t=P:problem=mixed beam	!	!	!	!	!	!	!	!	!	!	!	!	!	!	!	!	!	!
8G\L	6	.	16b/	.	16gg\	.	8G\	a-	(8B\	a-	8g\	a-	8ee\	a-	8e\	.	8g\	.
.	.	.	16g/JJ	.	16ee\JJ	.	.	.	.	.	.	.	.	.	.	.	.	.
!	!	!	!	!	!	!	!LO:TX:t=P:problem=mixed beam	!	!	!	!	!	!	!	!	!	!	!
8A\	3_	.	8.e/L	.	8.cc#\L	.	8F#\L	.	4A\)	.	4e\	.	4cc#\	.	4A/	.	4e\	.
8AA/J	.	.	.	.	.	.	8AA/J	.	.	.	.	.	.	.	.	.	.	.
.	.	.	32d/LL	.	32b\LL	.	.	.	.	.	.	.	.	.	.	.	.	.
.	X	.	32e/JJJ	.	32cc#\JJJ	.	.	.	.	.	.	.	.	.	.	.	.	.
=26	=26	=26	=26	=26	=26	=26	=26	=26	=26	=26	=26	=26	=26	=26	=26	=26	=26	=26
4D\	.	.	4f#/	.	4dd 4f#\	.	4D\	-men	4A\	-men	4f#\	-men	4dd\	-men	4F#/	.	4d\	.
*	*	*	*	*	*	*	*	*	*	*	*	*Xij	*	*Xij	*	*	*	*
4r	.	.	4r	.	4r	.	4r	.	4r	.	4r	.	4r	.	4r	.	4r	.
4r	.	.	4r	.	4r	.	4r	.	4r	.	4r	.	4r	.	4r	.	4r	.
==	==	==	==	==	==	==	==	==	==	==	==	==	==	==	==	==	==	==
*-	*-	*-	*-	*-	*-	*-	*-	*-	*-	*-	*-	*-	*-	*-	*-	*-	*-	*-
!!!system-decoration: [(g1)][(g2)][(g3)][s9]
!!!RDF**kern: < = below
!!!RDF**kern: | = vertical stroke
!!!filter-modern: | autostem -r | tie -s | shed -e "s/TX(.*):t=P:/tx$1:t=P:/LG" | shed -e "s/LO:DY:(a|b|rj)/LO:dy:$1/L" | shed -e "s/^(\d+[\/\\]right)/$1yy/I; s/^(\d+[\/\\]left)/$1yy/I" | shed -e "s/LO:DY:t=/LO:dy:t=/L" | modori -m
!!!ENC: Marta Opryszak
!!!END: 2021-11-24
!!!ENC: Marta Lawrence
!!!END: 2021-12-06
!!!ENC-modern: Leszek Kubiak
!!!END-modern: 2022-07-26
!!!YEC: Copyright 2022 Narodowy Instytut Fryderyka Chopina (https://polishscores.org)
!!!YEM: License CC-BY-4.0 (https://creativecommons.org/licenses/by/4.0)
